X:232
T:Pass Me Not, O Gentle Savior
%%stretchlast false
M:4/4
L:1/4
K:F clef=C1
"^I"[F,,F,CA]3/2 "^I¹"[A,,F,CG]/ "^IV"[B,,F,DF]3/4 "^iv"[B,,F,_DE]/4 "^IV"[B,,B,DF]3/4 [B,,F,B,D]/4 | "^I"[F,,F,A,C]2 [F,,A,CF]2 | "^v7"[C,B,CG]3/2 [C,B,CG]/ "^I²"[C,A,CF] "^V"[C,E,CG] | "^I"[F,,F,CA]3 "^i"[F,,C] | "^I"[F,,F,CA]/ "^I¹"[A,,F,CA]/ "^IVmaj7"[B,,F,DA]/ "^ii7¹"[B,,F,DG]/4 "^iiø7¹"[B,,F,_DG]/4 "^IV"[B,,F,DF]3/4 [B,,F,B,E]/4 [F,,A,B,F]3/4 "^vi¹"[F,,F,A,D]/4 | "^I"[F,,F,A,C] "^i"[F,,F,C] "^I"[F,,A,CF] "^I²"[C,A,CF] | "^v7"[C,B,CG]/ [C,B,CG]/ [C,B,CG]/ "^I²"[C,A,CF]/ [C,F,B,A] "^I"[F,,E,A,G] | [F,,F,A,F]2 "^i"[F,F]2 | "^I"[F,A,Fc]2 "^IV"[B,,CDA]2 | "^ii¹"[B,,B,G]3/2 "^iv"[B,,B,F]/ "^vi¹"[F,,F,A,D] [F,,F,A,D] | "^i"[F,,F,C] "^I¹"[A,,F,CF] "^I²"[C,F,CA] "^i"[C,F,CF] | "^V"[C,E,CG] [F,,E,CG]3/2 "^iii7"[A,,E,CG]/ "^IV"[B,,D]3/4 "^♯v"[B,,_D]/4 | "^IVmaj7"[B,,F,DA]3/4 "^iv7"[B,,F,B,A]/4 "^I"[F,,F,A,A]/ [F,,F,A,G]/ [F,,F,A,F]3/4 "^I7"[F,,F,A,E]/4 "^iv"[F,,B,CF]3/4 [F,,F,CD]/4 | "^i"[F,,F,C] [C,F,C] "^I²"[C,A,CF]/ [C,A,CF]/ [C,A,CF] | "^v7"[C,B,G] "^ii"[F,,A,B,G]/ "^I"[F,,A,F]/ [F,,F,A,A] [F,,E,A,G] | "^i"[F,F]3 |]
